Adwaita++/actions/22/flag-green.svg

<svg height="22" viewBox="0 0 22 22" width="22" xmlns="http://www.w3.org/2000/svg">
  <g transform="translate(3 3)">
    <path d="m2 0v16h2v-9h3l1 2h6v-7h-4l-1-2h-5z" fill="#444"/>
    <path d="m4 0v7h3l1 2h6v-7h-4l-1-2z" fill="#33d17a"/>
  </g>
</svg>

<svg xmlns="http://www.w3.org/2000/svg" width="22" height="22" version="1.1" viewBox="0 0 22 22">
 <defs>
  <style id="current-color-scheme" type="text/css">
   .ColorScheme-Text { color:#444444; } .ColorScheme-Highlight { color:#4285f4; }
  </style>
 </defs>
 <path class="ColorScheme-Text" d="M 2,0 2,16 4,16 4,7 7,7 8,9 14,9 14,2 10,2 9,0 4,0 2,0 Z" transform="translate(3 3)" style="fill:currentColor"/>
 <path d="M 4,0 4,7 7,7 8,9 14,9 14,2 10,2 9,0 4,0 Z" transform="translate(3 3)" style="fill:#33d17a"/>
</svg>
